third_party/region-flags/svg/CA-ON.svg

<svg xmlns="http://www.w3.org/2000/svg" width="2400" height="1200"><path fill="#CF142B" d="M0 0h2400v1200H0z"/><path fill="#00247D" d="M0 0h1200v600H0z"/><path fill="#FFF" d="M134.169 600H0v-67.083L1065.84 0H1200v67z"/><path fill="#FFF" d="M0 67.086L1065.84 600H1200v-67.082L134.169 0H0z"/><path fill="#FFF" d="M0 200.003V400h1200V200z"/><path fill="#FFF" d="M500 600h200V0H500z"/><path fill="#CF142B" d="M0 240v120h1200V240.002zm1200 315.279V600L800.003 400.002h89.441zM710.561 200l400-200H1200L800 200zM400 200h-89.438L0 44.726V0zM89.447 600H0l400-200h89.445z"/><path fill="#007934" stroke="#000" stroke-width="8" d="M1560.061 500.044l.072 99.848c.101 132.705 132.407 254.243 239.862 300.107 107.454-45.864 239.763-167.402 239.862-300.107l.072-99.808-479.868-.04z"/><path fill="#F3CC00" d="M1992.82 673.181l18.66-13.026-18.69-13.065 3.06-5.217-39.16-.031 19.541-33.84-6.061.032-2.04-22.706-20.69 9.582-3-5.263-19.529 33.844-19.61-33.897-2.989 5.255-20.66-9.651-1.95 22.675-6.06-.045 19.619 33.888-17.14-.018 2.69 4.568-16.33 11.4 16.35 11.433-2.67 4.563 34.26.034.31.179c-27.102 40.043-63.903 77.775-104.903 107.59l-.026-157.299 29.681 17.102-.03-5.288 19.88-1.726-8.44-18.036 4.601-2.615-14.84-8.552 33.93-19.541-5.27-2.989 9.649-20.612-22.72-1.972.04-6.045-33.931 19.553v-39.077l-5.229 3.057L1800 518.781l-13.12 18.642-5.229-3.057v39.077l-33.931-19.553.04 6.045-22.72 1.972 9.649 20.612-5.27 2.989 33.93 19.541-14.84 8.552 4.601 2.615-8.44 18.036 19.88 1.726-.03 5.288 29.681-17.102-.021 157.002c-40.973-29.866-77.732-67.63-104.77-107.688l.17-.099 34.26-.035-2.67-4.562 16.35-11.434-16.33-11.398 2.69-4.57-17.14.019 19.62-33.889-6.061.046-1.95-22.675-20.66 9.651-2.989-5.254-19.61 33.896-19.529-33.844-3 5.263-20.69-9.582-2.04 22.705-6.061-.031 19.541 33.839-39.16.031 3.06 5.219-18.69 13.064 18.66 13.027-3.069 5.223 39.159-.044-8.58 14.83 5.301-.04 1.699 19.841 18.08-8.445 2.62 4.598 17.16-29.654.309-.179c29.522 43.992 68.903 83.845 114.32 115.688l-.009 66.535 5.84-.039 5.83.039-.012-66.254c45.45-31.794 84.873-71.608 114.453-115.574l.169.098 17.159 29.653 2.621-4.597 18.08 8.445 1.699-19.84 5.301.04-8.58-14.831 39.16.044-3.071-5.221z"/><path fill="none" stroke="#007934" stroke-width="2" stroke-linecap="round" stroke-linejoin="round" d="M1799.95 533.216v82.579m46.16 13.344l-109.39-60.703m16.91 60.781l109.65-60.951m-75.36-23.183l12.08 20.803 12.08-20.803m-71.1 39.029l24.06-.059-11.979-20.002m105.959 19.89l-24.06-.06 11.979-20.001m113.92 33.922l-41.279 71.515m33.3 34.638l-64.38-107.266m-15.75 61.093l125.439 2.041m-53.679-57.758l.062 24.054 20.87-11.975m-81.092-1.748l20.86 11.977-.37-23.309m81.82 70.201l-20.801-12.074 20.371-11.335m-347.09-50.368l41.29 71.516m-33.31 34.638l64.38-107.267m15.75 61.094l-125.439 2.04m53.679-57.757l-.062 24.054-20.87-11.973m81.092-1.752l-20.86 11.978.37-23.308m-81.82 70.201l20.8-12.078-20.37-11.335"/><path fill="#FFF" d="M1560.04 300.032h479.961v200.146H1560.04z"/><path fill="#cf142b" d="M1822.52 300.058h-45v200.099h45z"/><path fill="#cf142b" d="M2040 377.602h-479.96v45.009H2040z"/><path fill="none" stroke="#000" stroke-width="8" d="M1560 300.002h479.963v200.147H1560z"/><path fill="#CF142B" d="M540 0v600h120V0z"/></svg>

<svg xmlns="http://www.w3.org/2000/svg" width="2400" height="1200"><path fill="#CF142B" d="M0 0h2400v1200H0z"/><path fill="#00247D" d="M0 0h1200v600H0z"/><path fill="#FFF" d="M134.169 600H0v-67.083L1065.84 0H1200v67z"/><path fill="#FFF" d="M0 67.086L1065.84 600H1200v-67.082L134.169 0H0z"/><path fill="#FFF" d="M0 200.003V400h1200V200z"/><path fill="#FFF" d="M500 600h200V0H500z"/><path fill="#CF142B" d="M0 240v120h1200V240.002zM1200 555.279V600L800.003 400.002h89.441zM710.561 200l400-200H1200L800 200zM400 200h-89.438L0 44.726V0zM89.447 600H0l400-200h89.445z"/><path fill="#007934" stroke="#000" stroke-width="8" d="M1560.061 500.044l.072 99.848c.101 132.705 132.407 254.243 239.862 300.107 107.454-45.864 239.763-167.402 239.862-300.107l.072-99.808-479.868-.04z"/><path fill="#F3CC00" d="M1992.82 673.181l18.66-13.026-18.69-13.065 3.06-5.217-39.16-.031 19.541-33.84-6.061.032-2.04-22.706-20.69 9.582-3-5.263-19.529 33.844-19.61-33.897-2.989 5.255-20.66-9.651-1.95 22.675-6.06-.045 19.619 33.888-17.14-.018 2.69 4.568-16.33 11.4 16.35 11.433-2.67 4.563 34.26.034.31.179c-27.102 40.043-63.903 77.775-104.903 107.59l-.026-157.299 29.681 17.102-.03-5.288 19.88-1.726-8.44-18.036 4.601-2.615-14.84-8.552 33.93-19.541-5.27-2.989 9.649-20.612-22.72-1.972.04-6.045-33.931 19.553v-39.077l-5.229 3.057L1800 518.781l-13.12 18.642-5.229-3.057v39.077l-33.931-19.553.04 6.045-22.72 1.972 9.649 20.612-5.27 2.989 33.93 19.541-14.84 8.552 4.601 2.615-8.44 18.036 19.88 1.726-.03 5.288 29.681-17.102-.021 157.002c-40.973-29.866-77.732-67.63-104.77-107.688l.17-.099 34.26-.035-2.67-4.562 16.35-11.434-16.33-11.398 2.69-4.57-17.14.019 19.62-33.889-6.061.046-1.95-22.675-20.66 9.651-2.989-5.254-19.61 33.896-19.529-33.844-3 5.263-20.69-9.582-2.04 22.705-6.061-.031 19.541 33.839-39.16.031 3.06 5.219-18.69 13.064 18.66 13.027-3.069 5.223 39.159-.044-8.58 14.83 5.301-.04 1.699 19.841 18.08-8.445 2.62 4.598 17.16-29.654.309-.179c29.522 43.992 68.903 83.845 114.32 115.688l-.009 66.535 5.84-.039 5.83.039-.012-66.254c45.45-31.794 84.873-71.608 114.453-115.574l.169.098 17.159 29.653 2.621-4.597 18.08 8.445 1.699-19.84 5.301.04-8.58-14.831 39.16.044-3.071-5.221z"/><path fill="none" stroke="#007934" stroke-width="2" stroke-linecap="round" stroke-linejoin="round" d="M1799.95 533.216v82.579M1846.11 629.139l-109.39-60.703M1753.63 629.217l109.65-60.951M1787.92 545.083l12.08 20.803 12.08-20.803M1740.98 584.112l24.06-.059-11.979-20.002M1859.02 583.941l-24.06-.06 11.979-20.001M1960.859 597.802l-41.279 71.515M1952.88 703.955l-64.38-107.266M1872.75 657.782l125.439 2.041M1944.51 602.065l.062 24.054 20.87-11.975M1884.35 612.396l20.86 11.977-.37-23.309M1986.66 671.265l-20.801-12.074 20.371-11.335M1639.14 597.488l41.29 71.516M1647.12 703.642l64.38-107.267M1727.25 657.469l-125.439 2.04M1655.49 601.752l-.062 24.054-20.87-11.973M1715.65 612.081l-20.86 11.978.37-23.308M1613.34 670.952l20.8-12.078-20.37-11.335"/><path fill="#FFF" d="M1560.04 300.032h479.961v200.146H1560.04z"/><path fill="#cf142b" d="M1822.52 300.058h-45v200.099h45z"/><path fill="#cf142b" d="M2040 377.602h-479.96v45.009H2040z"/><path fill="none" stroke="#000" stroke-width="8" d="M1560 300.002h479.963v200.147H1560z"/><path fill="#CF142B" d="M540 0v600h120V0z"/></svg>
